X:19058
T:Xiraldilla (CT 342)
R:Xiraldilla
C:Tradicional
S:Msica Tradicional Asturiana, (C) Tello & Tito. Asturies, 2001.
S:http://pagina.de/MusTradAst <telloytito@asturies.org>
N:Xiraldilla, transcrita en Xixn.
O:Xixn
A:Asturies
Z:Cancioneru de Torner 342
M:3/8
L:1/8
Q:3/8=88
W:San Pedro como era calvo,
W:le picaban los mosquitos
W:y su madre le compr
W:una gorra de tres picos.
W:Cogime esi gatu pintu,
W:sobrn de la gata parda;
W:cogime esi gatu pintu
W:que el pcaru se me escapa.
K:G
D
|A G/G/G/B/|dBd|d c/B/A/c/|BGD|G G/G/G/B/|(dB)d|d c/B/A/c/|BGB|
B A/G/F/A/|GGB|B A/G/F/A/|GGB|B A/G/F/A/|GGB|B A/G/F/A/|GG||
